X: 13554
T: Fly And Dodger
R: barndance
M: 4/4
K: Gmajor
|:GGGd B2AG|GGGd E2DE|GGGd B/A/G AB|1 GGGE D2DE:|2 GGGE DdBA||
|:AGGG eGGG|dGGG A2BA|AGGG eGGG|1 dGGF D2BA:|2 dGGF D2DE||

